X: 1
T: Jenny On The Railroad
M: 4/4
L: 1/8
R: reel
K: Ador
A2[c2A2] [B2A2] [c2A2]| ABAF G4 | G2GA BAG2 | BAG2  A4 |
cABA cAA2 | cAEF G4 | BGAG AGG2 | BAEG A4 ||
ABcd e2g2 | fedf edcB | ABcd eggg | fedf e4 |
a2ab agef | gedB AGG2 | G2GA BAG2 | A4 A4 ||
